packages/foundations/assets/icons/functional/images/audio & video/volume_down_32.svg

<svg width="32" height="32" viewBox="0 0 32 32" fill="none" xmlns="http://www.w3.org/2000/svg">
<g clip-path="url(#clip0_184_382)">
<path fill-rule="evenodd" clip-rule="evenodd" d="M17.6875 6.00002C18.1875 6.00002 18.6875 6.40602 18.6875 7.00002V25C18.6875 25.594 18.1875 26 17.6875 26C17.4597 26.0039 17.238 25.9262 17.0625 25.781L11.3125 21H7.6875C6.0935 21 4.6875 19.75 4.6875 18.187V14C4.6875 13.2044 5.00357 12.4413 5.56618 11.8787C6.12879 11.3161 6.89185 11 7.6875 11H11.3125L17.0625 6.21902C17.238 6.07381 17.4597 5.99613 17.6875 6.00002ZM16.6875 9.12502L12.3125 12.781C12.1332 12.9195 11.914 12.9963 11.6875 13H7.6875C7.1245 13 6.6875 13.438 6.6875 14V18C6.6875 18.563 7.1255 19 7.6875 19H11.6875C11.9065 19 12.1585 19.09 12.3125 19.219L16.6875 22.875V9.12502ZM23.3435 9.50002C25.8755 10.938 27.3125 13.219 27.3125 16.031C27.3125 18.813 25.8745 21.125 23.3435 22.563C23.2022 22.6475 23.0401 22.6908 22.8755 22.688C22.6186 22.687 22.3725 22.5844 22.1908 22.4027C22.0091 22.2211 21.9066 21.975 21.9055 21.718C21.9055 21.375 22.0625 21.063 22.4055 20.875C24.3125 19.781 25.3755 18.094 25.3755 16.031C25.3755 13.969 24.3125 12.281 22.4055 11.188C22.2538 11.1055 22.1273 10.9834 22.0393 10.8349C21.9513 10.6863 21.905 10.5167 21.9055 10.344C21.9055 9.90602 22.2505 9.34402 22.8755 9.34402C23.0315 9.34402 23.1875 9.40602 23.3435 9.50002ZM20.5625 17.969C20.5625 17 21.5315 17 21.5315 16.031C21.4995 15.063 20.5935 15.063 20.5625 14.094C20.5315 13.594 21.0315 13.125 21.5315 13.125C22.4995 13.125 23.4685 14.563 23.4685 16.031C23.4685 17.5 22.5005 18.938 21.5315 18.938C21.0315 18.938 20.5625 18.469 20.5625 17.969Z" fill="#1A1C1F"/>
</g>
<defs>
<clipPath id="clip0_184_382">
<rect width="32" height="32" fill="white"/>
</clipPath>
</defs>
</svg>

<svg xmlns="http://www.w3.org/2000/svg" width="32" height="32" fill="none"><g clip-path="url(#a)"><path fill="#1A1C1F" fill-rule="evenodd" d="M17.688 6c.5 0 1 .406 1 1v18c0 .594-.5 1-1 1a.96.96 0 0 1-.625-.219L11.313 21H7.687c-1.594 0-3-1.25-3-2.813V14a3 3 0 0 1 3-3h3.625l5.75-4.781A.96.96 0 0 1 17.688 6m-1 3.125-4.375 3.656a1.05 1.05 0 0 1-.626.219h-4c-.562 0-1 .438-1 1v4c0 .563.438 1 1 1h4c.22 0 .472.09.626.219l4.374 3.656zm6.656.375c2.531 1.438 3.968 3.719 3.968 6.531 0 2.782-1.437 5.094-3.969 6.532a.9.9 0 0 1-.468.125.974.974 0 0 1-.97-.97c0-.343.157-.655.5-.843 1.907-1.094 2.97-2.781 2.97-4.844 0-2.062-1.062-3.75-2.97-4.843a.96.96 0 0 1-.5-.844c0-.438.345-1 .97-1 .157 0 .313.062.468.156m-2.782 8.469c0-.969.97-.969.97-1.938-.032-.968-.939-.968-.97-1.937-.03-.5.47-.969.97-.969.968 0 1.936 1.438 1.936 2.906s-.968 2.907-1.936 2.907c-.5 0-.97-.469-.97-.969" clip-rule="evenodd"/></g><defs><clipPath id="a"><path fill="#fff" d="M0 0h32v32H0z"/></clipPath></defs></svg>
